Adwaita++-Dark/actions/22/transform-affect-rounded-corners.svg

<svg height="22" viewBox="0 0 22 22" width="22" xmlns="http://www.w3.org/2000/svg">
  <path d="m2.5078125 2a.5.5 0 0 0 0 1h5.4960937c1.6537001 0 2.8897498.4668344 3.7187498 1.2402344.828.7735 1.277344 1.8707656 1.277344 3.2597656a.5.5 0 0 0 1 0c0-1.611-.549703-3.0137344-1.595703-3.9902344-1.045-.9766-2.5561907-1.5097656-4.4003908-1.5097656zm0 3a.5.5 0 0 0 0 1h3.9960937c1.1826 0 1.9107969.2364375 2.3417969.6484375.431.4121.65625 1.0747438.65625 2.1523437a.5.5 0 0 0 .9999999 0c0-1.2224-.273997-2.2120999-.9667968-2.875-.6934-.663-1.71535-.9257812-3.03125-.9257812zm8.4999995 4.0136719v1.9941401h-2.0019526v.996094h2.0019526v1.996094l3.003907-2.494141zm-7.007812 1.9785161v1.029296h1v-1.029296zm2.0175781 0v1.029296h.484375 1.0019531.484375v-1.029296h-.484375-1.0019531z" fill="#e6ddff" transform="translate(3 3)"/>
</svg>

<svg xmlns="http://www.w3.org/2000/svg" width="22" height="22" viewBox="0 0 22 22">
 <defs>
  <style id="current-color-scheme" type="text/css">
   .ColorScheme-Text { color:#E6DDFF; } .ColorScheme-Highlight { color:#4285f4; }
  </style>
 </defs>
 <path style="fill:currentColor" class="ColorScheme-Text" d="M 2.5078125 2 A 0.5 0.5 0 0 0 2.5078125 3 L 8.0039062 3 C 9.6576063 3 10.893656 3.4668344 11.722656 4.2402344 C 12.550656 5.0137344 13 6.111 13 7.5 A 0.5 0.5 0 0 0 14 7.5 C 14 5.889 13.450297 4.4862656 12.404297 3.5097656 C 11.359297 2.5331656 9.8481063 2 8.0039062 2 L 2.5078125 2 z M 2.5078125 5 A 0.5 0.5 0 0 0 2.5078125 6 L 6.5039062 6 C 7.6865062 6 8.4147031 6.2364375 8.8457031 6.6484375 C 9.2767031 7.0605375 9.5019531 7.7231813 9.5019531 8.8007812 A 0.5 0.5 0 0 0 10.501953 8.8007812 C 10.501953 7.5783812 10.227956 6.5886813 9.5351562 5.9257812 C 8.8417562 5.2627812 7.8198062 5 6.5039062 5 L 2.5078125 5 z M 11.007812 9.0136719 L 11.007812 11.007812 L 9.0058594 11.007812 L 9.0058594 12.003906 L 11.007812 12.003906 L 11.007812 14 L 14.011719 11.505859 L 11.007812 9.0136719 z M 4 10.992188 L 4 12.021484 L 5 12.021484 L 5 10.992188 L 4 10.992188 z M 6.0175781 10.992188 L 6.0175781 12.021484 L 6.5019531 12.021484 L 7.5039062 12.021484 L 7.9882812 12.021484 L 7.9882812 10.992188 L 7.5039062 10.992188 L 6.5019531 10.992188 L 6.0175781 10.992188 z" transform="translate(3 3)"/>
</svg>
